X: 18070
T: Humours Of Ballingarry, The
R: jig
M: 6/8
K: Gmajor
|:A|BGG dGG|cAG FGA|BGG dGB|cAF G2 A|
BGG dGG|cAG FGA|d^cd fed|cAF G2:|
|:B|def ~g3|edc BcG|A2~a aga|bge e2B|
def ~g3|edc BcA|GBd gdB|cAF G2:|

